X: 61
T:Elterwater Quickstep. WI.061
T:Lamb Skinnet,aka. WI.061
M:6/8
Q:120
S:Wm Irwin, Folio MS, c1850. AGG's Transcription
R:Quickstep
O:England
A:Lake District
N:Quickstep = march
Z:vmp.Chris Partington.2005
K:G
(Bc)|d>BG d>BG|c2e .e.f.g|d>BG d>BG|F<AA A2(B/c/)|!
B>AG B>AG|c2e .e.f.g|d>BG c>AF|A3 G2:|!
|:g/a/|b>ag a>gf|{a}g>fe .d.c.B|.c.d.e .d.B.G|B3 A2g/a/|!
b>ag a>gf|{a}g>fe .d.c.B|c2e .d.c.B|A3 G2:|]
